X:1
T:The Ladus -- Reel
R:reel
B:Ryan's Mammoth Collection
Z:Contributed by Ray Davies,  ray:davies99.freeserve.co.uk
M:C|
L:1/8
K:G
udc"^Segno"|:BGGB d2cB|ADDE FGAc|BGGB d2cB|cdef g2dc|
BGGB d2cB|ADDE FGAc|BGGB d2cB|cdef g2dc:||:
G2gf edcB|Aaag fedc|Bdgf edcB|cdef g2g2|
G2gf edcB|ADDE F2GA|BGGB cAAg|fdef g2g2"^Segno":|
